X: 1
T: the Moudiwort
Z: John Chambers <jc:trillian.mit.edu>
R: jig
M: 6/8
L: 1/8
K: G
|: g \
| "G"dBG     ABd | "Am"e2A A2g |  "G"dBG     ABd |  "C"e3  e2g \
| "G"dBG "D7"ABc | "Em"BAB GAB | "Am"cBA "B7"dcB | "Em"e2E E2 :|
|: f \
| "Em"gag gfe | "D"aba agf | "Em"gfg  "D"aga | "B7"b3  B2f \
| "Em"gag gfe | "D"aba agf |  "G"bag "B7"agf | "Em"e2E E2 :|
